48x48/apps/help.svg

<svg viewBox="0 0 48 48" xmlns:xlink="http://www.w3.org/1999/xlink"><defs><linearGradient id="linearGradient3764" x1="1" x2="47" gradientUnits="userSpaceOnUse" gradientTransform="matrix(0,-1,1,0,-1.5e-6,47.999998)"><stop stop-color="#30a0d4" stop-opacity="1"/><stop offset="1" stop-color="#41a8d8" stop-opacity="1"/></linearGradient><clipPath id="clipPath-344359535"><g transform="translate(0,-1004.3622)"><path d="m -24 13 c 0 1.105 -0.672 2 -1.5 2 -0.828 0 -1.5 -0.895 -1.5 -2 0 -1.105 0.672 -2 1.5 -2 0.828 0 1.5 0.895 1.5 2 z" transform="matrix(15.333333,0,0,11.5,414.99999,878.8622)" fill="#1890d0"/></g></clipPath><clipPath id="clipPath-356884567"><g transform="translate(0,-1004.3622)"><path d="m -24 13 c 0 1.105 -0.672 2 -1.5 2 -0.828 0 -1.5 -0.895 -1.5 -2 0 -1.105 0.672 -2 1.5 -2 0.828 0 1.5 0.895 1.5 2 z" transform="matrix(15.333333,0,0,11.5,414.99999,878.8622)" fill="#1890d0"/></g></clipPath></defs><g><path d="m 36.31 5 c 5.859 4.062 9.688 10.831 9.688 18.5 c 0 12.426 -10.07 22.5 -22.5 22.5 c -7.669 0 -14.438 -3.828 -18.5 -9.688 c 1.037 1.822 2.306 3.499 3.781 4.969 c 4.085 3.712 9.514 5.969 15.469 5.969 c 12.703 0 23 -10.298 23 -23 c 0 -5.954 -2.256 -11.384 -5.969 -15.469 c -1.469 -1.475 -3.147 -2.744 -4.969 -3.781 z m 4.969 3.781 c 3.854 4.113 6.219 9.637 6.219 15.719 c 0 12.703 -10.297 23 -23 23 c -6.081 0 -11.606 -2.364 -15.719 -6.219 c 4.16 4.144 9.883 6.719 16.219 6.719 c 12.703 0 23 -10.298 23 -23 c 0 -6.335 -2.575 -12.06 -6.719 -16.219 z" opacity="0.05"/><path d="m 41.28 8.781 c 3.712 4.085 5.969 9.514 5.969 15.469 c 0 12.703 -10.297 23 -23 23 c -5.954 0 -11.384 -2.256 -15.469 -5.969 c 4.113 3.854 9.637 6.219 15.719 6.219 c 12.703 0 23 -10.298 23 -23 c 0 -6.081 -2.364 -11.606 -6.219 -15.719 z" opacity="0.1"/><path d="m 31.25 2.375 c 8.615 3.154 14.75 11.417 14.75 21.13 c 0 12.426 -10.07 22.5 -22.5 22.5 c -9.708 0 -17.971 -6.135 -21.12 -14.75 a 23 23 0 0 0 44.875 -7 a 23 23 0 0 0 -16 -21.875 z" opacity="0.2"/></g><g><path d="m 24 1 c 12.703 0 23 10.297 23 23 c 0 12.703 -10.297 23 -23 23 -12.703 0 -23 -10.297 -23 -23 0 -12.703 10.297 -23 23 -23 z" fill="url(#linearGradient3764)" fill-opacity="1"/></g><g/><g><g clip-path="url(#clipPath-344359535)"><g transform="translate(1,1)"><g opacity="0.1"><!-- color: #41a8d8 --><g><path d="m 24 9 c -8.285 0 -15 6.715 -15 15 c 0 8.285 6.715 15 15 15 c 8.285 0 15 -6.715 15 -15 c 0 -8.285 -6.715 -15 -15 -15 m 0 6 c 4.969 0 9 4.03 9 9 c 0 4.969 -4.03 9 -9 9 c -4.969 0 -9 -4.03 -9 -9 c 0 -4.969 4.03 -9 9 -9 m 0 0" stroke="none" fill-rule="nonzero" fill-opacity="1" fill="#000"/><path d="m 10.375 17.781 c -0.867 1.895 -1.375 4 -1.375 6.219 c 0 2.219 0.508 4.324 1.375 6.219 l 5.25 -3 c -0.383 -1 -0.625 -2.082 -0.625 -3.219 c 0 -1.137 0.242 -2.219 0.625 -3.219 m -5.25 -3" stroke="none" fill-rule="nonzero" fill-opacity="1" fill="#000"/><path d="m 37.625 17.781 l -5.25 3 c 0.383 1 0.625 2.082 0.625 3.219 c 0 1.137 -0.242 2.219 -0.625 3.219 l 5.25 3 c 0.867 -1.895 1.375 -4 1.375 -6.219 c 0 -2.219 -0.508 -4.324 -1.375 -6.219 m 0 0" stroke="none" fill-rule="nonzero" fill-opacity="1" fill="#000"/><path d="m 20.781 32.375 l -3 5.25 c 1.895 0.867 4 1.375 6.219 1.375 c 2.219 0 4.324 -0.508 6.219 -1.375 l -3 -5.25 c -1 0.383 -2.082 0.625 -3.219 0.625 c -1.137 0 -2.219 -0.242 -3.219 -0.625 m 0 0" stroke="none" fill-rule="nonzero" fill-opacity="1" fill="#000"/><path d="m 24 9 c -2.219 0 -4.324 0.508 -6.219 1.375 l 3 5.25 c 1 -0.383 2.082 -0.625 3.219 -0.625 c 1.137 0 2.219 0.242 3.219 0.625 l 3 -5.25 c -1.895 -0.867 -4 -1.375 -6.219 -1.375 m 0 0" stroke="none" fill-rule="nonzero" fill-opacity="1" fill="#000"/><use xlink:href="#SVGCleanerId_0"/><use xlink:href="#SVGCleanerId_1"/></g></g></g></g></g><g><g clip-path="url(#clipPath-356884567)"><!-- color: #41a8d8 --><g><path d="m 24 9 c -8.285 0 -15 6.715 -15 15 c 0 8.285 6.715 15 15 15 c 8.285 0 15 -6.715 15 -15 c 0 -8.285 -6.715 -15 -15 -15 m 0 6 c 4.969 0 9 4.03 9 9 c 0 4.969 -4.03 9 -9 9 c -4.969 0 -9 -4.03 -9 -9 c 0 -4.969 4.03 -9 9 -9 m 0 0" fill="#ea5c53" stroke="none" fill-rule="nonzero" fill-opacity="1"/><path d="m 10.375 17.781 c -0.867 1.895 -1.375 4 -1.375 6.219 c 0 2.219 0.508 4.324 1.375 6.219 l 5.25 -3 c -0.383 -1 -0.625 -2.082 -0.625 -3.219 c 0 -1.137 0.242 -2.219 0.625 -3.219 m -5.25 -3" fill="#eeece0" stroke="none" fill-rule="nonzero" fill-opacity="1"/><path d="m 37.625 17.781 l -5.25 3 c 0.383 1 0.625 2.082 0.625 3.219 c 0 1.137 -0.242 2.219 -0.625 3.219 l 5.25 3 c 0.867 -1.895 1.375 -4 1.375 -6.219 c 0 -2.219 -0.508 -4.324 -1.375 -6.219 m 0 0" fill="#eeece0" stroke="none" fill-rule="nonzero" fill-opacity="1"/><path d="m 20.781 32.375 l -3 5.25 c 1.895 0.867 4 1.375 6.219 1.375 c 2.219 0 4.324 -0.508 6.219 -1.375 l -3 -5.25 c -1 0.383 -2.082 0.625 -3.219 0.625 c -1.137 0 -2.219 -0.242 -3.219 -0.625 m 0 0" fill="#eeece0" stroke="none" fill-rule="nonzero" fill-opacity="1"/><path d="m 24 9 c -2.219 0 -4.324 0.508 -6.219 1.375 l 3 5.25 c 1 -0.383 2.082 -0.625 3.219 -0.625 c 1.137 0 2.219 0.242 3.219 0.625 l 3 -5.25 c -1.895 -0.867 -4 -1.375 -6.219 -1.375 m 0 0" fill="#eeece0" stroke="none" fill-rule="nonzero" fill-opacity="1"/><path d="m 24 9 c -8.285 0 -15 6.715 -15 15 c 0 4.398 1.922 8.32 4.938 11.06 c -2.426 -2.664 -3.938 -6.176 -3.938 -10.06 c 0 -8.285 6.715 -15 15 -15 c 3.887 0 7.398 1.512 10.06 3.938 c -2.742 -3.02 -6.664 -4.938 -11.06 -4.938 m 0 0" fill="#000" stroke="none" fill-rule="nonzero" fill-opacity="0.149" id="SVGCleanerId_0"/><path d="m 30.844 18.16 c 1.344 1.574 2.156 3.613 2.156 5.844 c 0 4.969 -4.03 9 -9 9 c -2.23 0 -4.27 -0.813 -5.844 -2.156 c 1.652 1.93 4.105 3.156 6.844 3.156 c 4.969 0 9 -4.03 9 -9 c 0 -2.738 -1.227 -5.191 -3.156 -6.844 m 0 0" fill="#000" stroke="none" fill-rule="nonzero" fill-opacity="0.149" id="SVGCleanerId_1"/></g></g></g><g><path d="m 40.03 7.531 c 3.712 4.084 5.969 9.514 5.969 15.469 0 12.703 -10.297 23 -23 23 c -5.954 0 -11.384 -2.256 -15.469 -5.969 4.178 4.291 10.01 6.969 16.469 6.969 c 12.703 0 23 -10.298 23 -23 0 -6.462 -2.677 -12.291 -6.969 -16.469 z" opacity="0.1"/></g></svg>

<?xml version="1.0" encoding="UTF-8" standalone="no"?>
<svg
   xmlns:dc="http://purl.org/dc/elements/1.1/"
   xmlns:cc="http://creativecommons.org/ns#"
   xmlns:rdf="http://www.w3.org/1999/02/22-rdf-syntax-ns#"
   xmlns:svg="http://www.w3.org/2000/svg"
   xmlns="http://www.w3.org/2000/svg"
   xmlns:sodipodi="http://sodipodi.sourceforge.net/DTD/sodipodi-0.dtd"
   xmlns:inkscape="http://www.inkscape.org/namespaces/inkscape"
   viewBox="0 0 48 48"
   id="svg2"
   version="1.1"
   inkscape:version="0.48.4 r9939"
   width="100%"
   height="100%"
   sodipodi:docname="help.svg">
  <metadata
     id="metadata83">
    <rdf:RDF>
      <cc:Work
         rdf:about="">
        <dc:format>image/svg+xml</dc:format>
        <dc:type
           rdf:resource="http://purl.org/dc/dcmitype/StillImage" />
      </cc:Work>
    </rdf:RDF>
  </metadata>
  <sodipodi:namedview
     pagecolor="#ffffff"
     bordercolor="#666666"
     borderopacity="1"
     objecttolerance="10"
     gridtolerance="10"
     guidetolerance="10"
     inkscape:pageopacity="0"
     inkscape:pageshadow="2"
     inkscape:window-width="1375"
     inkscape:window-height="876"
     id="namedview81"
     showgrid="false"
     inkscape:zoom="4.9166667"
     inkscape:cx="-0.20338983"
     inkscape:cy="24"
     inkscape:window-x="65"
     inkscape:window-y="24"
     inkscape:window-maximized="1"
     inkscape:current-layer="svg2" />
  <defs
     id="defs4">
    <linearGradient
       id="linearGradient3764"
       x1="1"
       x2="47"
       gradientUnits="userSpaceOnUse"
       gradientTransform="matrix(0,-1,1,0,-1.5e-6,47.999998)">
      <stop
         stop-color="#30a0d4"
         stop-opacity="1"
         id="stop7" />
      <stop
         offset="1"
         stop-color="#41a8d8"
         stop-opacity="1"
         id="stop9" />
    </linearGradient>
    <clipPath
       id="clipPath-344359535">
      <g
         transform="translate(0,-1004.3622)"
         id="g12">
        <path
           d="m -24 13 c 0 1.105 -0.672 2 -1.5 2 -0.828 0 -1.5 -0.895 -1.5 -2 0 -1.105 0.672 -2 1.5 -2 0.828 0 1.5 0.895 1.5 2 z"
           transform="matrix(15.333333,0,0,11.5,414.99999,878.8622)"
           fill="#1890d0"
           id="path14" />
      </g>
    </clipPath>
    <clipPath
       id="clipPath-356884567">
      <g
         transform="translate(0,-1004.3622)"
         id="g17">
        <path
           d="m -24 13 c 0 1.105 -0.672 2 -1.5 2 -0.828 0 -1.5 -0.895 -1.5 -2 0 -1.105 0.672 -2 1.5 -2 0.828 0 1.5 0.895 1.5 2 z"
           transform="matrix(15.333333,0,0,11.5,414.99999,878.8622)"
           fill="#1890d0"
           id="path19" />
      </g>
    </clipPath>
    <linearGradient
       id="linearGradient3764-7"
       x1="1"
       x2="47"
       gradientUnits="userSpaceOnUse"
       gradientTransform="matrix(0,-1,1,0,-1.5e-6,47.999998)">
      <stop
         stop-color="#b5945b"
         stop-opacity="1"
         id="stop7-5" />
      <stop
         offset="1"
         stop-color="#bb9e69"
         stop-opacity="1"
         id="stop9-5" />
    </linearGradient>
    <clipPath
       id="clipPath-899834956">
      <g
         transform="translate(0,-1004.3622)"
         id="g12-4">
        <path
           d="m -24 13 c 0 1.105 -0.672 2 -1.5 2 -0.828 0 -1.5 -0.895 -1.5 -2 0 -1.105 0.672 -2 1.5 -2 0.828 0 1.5 0.895 1.5 2 z"
           transform="matrix(15.333333,0,0,11.5,414.99999,878.8622)"
           fill="#1890d0"
           id="path14-0" />
      </g>
    </clipPath>
    <clipPath
       id="clipPath-909443126">
      <g
         transform="translate(0,-1004.3622)"
         id="g17-3">
        <path
           d="m -24 13 c 0 1.105 -0.672 2 -1.5 2 -0.828 0 -1.5 -0.895 -1.5 -2 0 -1.105 0.672 -2 1.5 -2 0.828 0 1.5 0.895 1.5 2 z"
           transform="matrix(15.333333,0,0,11.5,414.99999,878.8622)"
           fill="#1890d0"
           id="path19-9" />
      </g>
    </clipPath>
    <clipPath
       id="clipPath-909443126-7">
      <g
         transform="translate(0,-1004.3622)"
         id="g17-2">
        <path
           style="fill:#1890d0"
           inkscape:connector-curvature="0"
           d="m -24,13 c 0,1.105 -0.672,2 -1.5,2 -0.828,0 -1.5,-0.895 -1.5,-2 0,-1.105 0.672,-2 1.5,-2 0.828,0 1.5,0.895 1.5,2 z"
           transform="matrix(15.333333,0,0,11.5,414.99999,878.8622)"
           id="path19-3" />
      </g>
    </clipPath>
    <linearGradient
       id="linearGradient3759">
      <stop
         id="stop3761"
         offset="0"
         style="stop-color:#a75e15;stop-opacity:1;" />
      <stop
         id="stop3763"
         offset="1"
         style="stop-color:#ffffff;stop-opacity:0;" />
    </linearGradient>
    <linearGradient
       id="linearGradient3777">
      <stop
         id="stop3779"
         offset="0"
         style="stop-color:#e0dd00;stop-opacity:1;" />
      <stop
         id="stop3781"
         offset="1"
         style="stop-color:#000000;stop-opacity:0;" />
    </linearGradient>
    <clipPath
       id="clipPath-356884567-1">
      <g
         transform="translate(0,-1004.3622)"
         id="g17-9">
        <path
           style="fill:#1890d0"
           inkscape:connector-curvature="0"
           d="m -24,13 c 0,1.105 -0.672,2 -1.5,2 -0.828,0 -1.5,-0.895 -1.5,-2 0,-1.105 0.672,-2 1.5,-2 0.828,0 1.5,0.895 1.5,2 z"
           transform="matrix(15.333333,0,0,11.5,414.99999,878.8622)"
           id="path19-1" />
      </g>
    </clipPath>
  </defs>
  <g
     id="g33" />
  <g
     id="g3107">
    <g
       inkscape:label="shadows"
       id="layer2">
      <rect
         ry="13.03658"
         rx="13.03658"
         y="1"
         x="1"
         height="46"
         width="46"
         id="rect3007"
         style="opacity:0.1;fill:#000000;fill-opacity:1;fill-rule:nonzero;stroke:none" />
      <rect
         style="opacity:0.1;fill:#000000;fill-opacity:1;fill-rule:nonzero;stroke:none"
         id="rect3011"
         width="47"
         height="47"
         x="0.5"
         y="0.5"
         rx="13.319984"
         ry="13.319984" />
      <rect
         style="opacity:0.1;fill:#000000;fill-opacity:1;fill-rule:nonzero;stroke:none"
         id="rect3013"
         width="46.5"
         height="46.5"
         x="0.75"
         y="0.75"
         rx="13.178282"
         ry="13.178282" />
    </g>
    <g
       style="display:inline"
       inkscape:label="background-color"
       id="layer1">
      <rect
         transform="matrix(0,-1,1,0,0,0)"
         ry="12.753176"
         rx="12.753176"
         y="1.5"
         x="-46.5"
         height="45"
         width="45"
         id="rect2988"
         style="fill:#30a0d4;fill-opacity:1;fill-rule:nonzero;stroke:none" />
    </g>
  </g>
  <g
     id="g59-6">
    <g
       clip-path="url(#clipPath-356884567-1)"
       id="g61-7">
      <!-- color: #41a8d8 -->
      <g
         id="g63-7">
        <path
           style="fill:#ea5c53;fill-opacity:1;fill-rule:nonzero;stroke:none"
           inkscape:connector-curvature="0"
           d="M 24,9 C 15.715,9 9,15.715 9,24 9,32.285 15.715,39 24,39 32.285,39 39,32.285 39,24 39,15.715 32.285,9 24,9 m 0,6 c 4.969,0 9,4.03 9,9 0,4.969 -4.03,9 -9,9 -4.969,0 -9,-4.03 -9,-9 0,-4.969 4.03,-9 9,-9 m 0,0"
           id="path65-4" />
        <path
           style="fill:#eeece0;fill-opacity:1;fill-rule:nonzero;stroke:none"
           inkscape:connector-curvature="0"
           d="M 10.375,17.781 C 9.508,19.676 9,21.781 9,24 c 0,2.219 0.508,4.324 1.375,6.219 l 5.25,-3 C 15.242,26.219 15,25.137 15,24 c 0,-1.137 0.242,-2.219 0.625,-3.219 m -5.25,-3"
           id="path67-5" />
        <path
           style="fill:#eeece0;fill-opacity:1;fill-rule:nonzero;stroke:none"
           inkscape:connector-curvature="0"
           d="m 37.625,17.781 -5.25,3 c 0.383,1 0.625,2.082 0.625,3.219 0,1.137 -0.242,2.219 -0.625,3.219 l 5.25,3 C 38.492,28.324 39,26.219 39,24 39,21.781 38.492,19.676 37.625,17.781 m 0,0"
           id="path69-3" />
        <path
           style="fill:#eeece0;fill-opacity:1;fill-rule:nonzero;stroke:none"
           inkscape:connector-curvature="0"
           d="m 20.781,32.375 -3,5.25 c 1.895,0.867 4,1.375 6.219,1.375 2.219,0 4.324,-0.508 6.219,-1.375 l -3,-5.25 C 26.219,32.758 25.137,33 24,33 22.863,33 21.781,32.758 20.781,32.375 m 0,0"
           id="path71-8" />
        <path
           style="fill:#eeece0;fill-opacity:1;fill-rule:nonzero;stroke:none"
           inkscape:connector-curvature="0"
           d="m 24,9 c -2.219,0 -4.324,0.508 -6.219,1.375 l 3,5.25 C 21.781,15.242 22.863,15 24,15 c 1.137,0 2.219,0.242 3.219,0.625 l 3,-5.25 C 28.324,9.508 26.219,9 24,9 m 0,0"
           id="path73-1" />
        <path
           style="fill:#000000;fill-opacity:0.14900004;fill-rule:nonzero;stroke:none"
           inkscape:connector-curvature="0"
           d="M 24,9 C 15.715,9 9,15.715 9,24 9,28.398 10.922,32.32 13.938,35.06 11.512,32.396 10,28.884 10,25 c 0,-8.285 6.715,-15 15,-15 3.887,0 7.398,1.512 10.06,3.938 C 32.318,10.918 28.396,9 24,9 m 0,0"
           id="SVGCleanerId_0-2" />
        <path
           style="fill:#000000;fill-opacity:0.14900004;fill-rule:nonzero;stroke:none"
           inkscape:connector-curvature="0"
           d="m 30.844,18.16 c 1.344,1.574 2.156,3.613 2.156,5.844 0,4.969 -4.03,9 -9,9 -2.23,0 -4.27,-0.813 -5.844,-2.156 1.652,1.93 4.105,3.156 6.844,3.156 4.969,0 9,-4.03 9,-9 0,-2.738 -1.227,-5.191 -3.156,-6.844 m 0,0"
           id="SVGCleanerId_1-3" />
      </g>
    </g>
  </g>
</svg>
